svgs/sharp-regular/thumbs-up.svg

<svg xmlns="http://www.w3.org/2000/svg" viewBox="0 0 512 512"><!--! Font Awesome Pro 6.6.0 by @fontawesome - https://fontawesome.com License - https://fontawesome.com/license (Commercial License) Copyright 2024 Fonticons, Inc. --><path d="M224 32l24 0 96 0 24 0 0 24 0 33c0 30.3-5.9 59.8-16.9 87l96.9 0 40 0 24 0 0 24 0 80 0 24-16 0 0 40 0 24-24 0 0 40 0 24-24 0 0 24 0 24-24 0-40 0-112 0-12.1 0-7.3 0-6-4-10.1-6.7-76.5-51 0-57.7 103.1 68.8 4 2.7 4.8 0 112 0 16 0 0-24 0-24 24 0 0-40 0-24 24 0 0-40 0-24 16 0 0-32-16 0-136.1 0-43.5 0 23.2-36.8C309.8 158.3 320 124.4 320 89l0-9-48 0 0 9c0 49.8-27.2 95.6-70.9 119.4l-4.6 2.5-18.6 10.1-5.4 2.9-6.1 0-2.4 0-4 0 0-48 .3 0 13.2-7.2 4.6-2.5C206.4 150.9 224 121.2 224 89l0-33 0-24zM128 192l0 288L0 480 0 192l128 0z"/></svg>

<svg xmlns="http://www.w3.org/2000/svg" viewBox="0 0 512 512"><!--! Font Awesome Pro 6.4.0 by @fontawesome - https://fontawesome.com License - https://fontawesome.com/license (Commercial License) Copyright 2023 Fonticons, Inc. --><path d="M224 32h24 96 24V56 89c0 30.3-5.9 59.8-16.9 87H448h40 24v24 80 24H496v40 24H472v40 24H448v24 24H424 384 272 259.9h-7.3l-6-4-10.1-6.7-76.5-51V360.6l103.1 68.8 4 2.7H272 384h16V408 384h24V344 320h24V280 256h16V224H448 311.9 268.4l23.2-36.8C309.8 158.3 320 124.4 320 89V80H272v9c0 49.8-27.2 95.6-70.9 119.4l-4.6 2.5-18.6 10.1-5.4 2.9h-6.1H164h-4V176h.3l13.2-7.2 4.6-2.5C206.4 150.9 224 121.2 224 89V56 32zM128 192V480H0V192H128z"/></svg>
